packages/kaspersky-hexa-ui-icons/src/iconsSVGs/24/StackedChartColumn.svg

<svg xmlns="http://www.w3.org/2000/svg" width="24" height="24" fill="none" viewBox="0 0 24 24"><path d="M0 24h24V0H0z"/><path fill="#000" fill-rule="evenodd" d="M2 15c0 1.1046.8954 2 2 2h2c1.1046 0 2-.8954 2-2V5c0-1.1046-.8954-2-2-2H4c-1.1046 0-2 .8954-2 2zm14 0c0 1.1046.8954 2 2 2h2c1.1046 0 2-.8954 2-2V6c0-1.1046-.8954-2-2-2h-2c-1.1046 0-2 .8954-2 2zM4 5v2h2V5zm14 6V6h2v5zm-7 6c-1.1046 0-2-.8954-2-2v-5c0-1.1046.8954-2 2-2h2c1.1046 0 2 .8954 2 2v5c0 1.1046-.8954 2-2 2zM4 9h2v6H4zm7 1v5h2v-5zm9 3h-2v2h2zM3 19c-.5523 0-1 .4477-1 1s.4477 1 1 1h18c.5523 0 1-.4477 1-1s-.4477-1-1-1z"/></svg>

<svg width="24" height="24" viewBox="0 0 24 24" fill="none" xmlns="http://www.w3.org/2000/svg">
<path d="M3 19C2.44772 19 2 19.4477 2 20C2 20.5523 2.44772 21 3 21H21C21.5523 21 22 20.5523 22 20C22 19.4477 21.5523 19 21 19L3 19Z" fill="black"/>
<path fill-rule="evenodd" clip-rule="evenodd" d="M2 15C2 16.1046 2.89543 17 4 17H6C7.10457 17 8 16.1046 8 15L8 5C8 3.89543 7.10457 3 6 3H4C2.89543 3 2 3.89543 2 5L2 15ZM4 5V7H6V5H4ZM4 9H6L6 15H4L4 9Z" fill="black"/>
<path fill-rule="evenodd" clip-rule="evenodd" d="M11 17C9.89543 17 9 16.1046 9 15L9 10C9 8.89543 9.89543 8 11 8H13C14.1046 8 15 8.89543 15 10V15C15 16.1046 14.1046 17 13 17H11ZM11 10V15H13V10H11Z" fill="black"/>
<path fill-rule="evenodd" clip-rule="evenodd" d="M16 15C16 16.1046 16.8954 17 18 17H20C21.1046 17 22 16.1046 22 15V6C22 4.89543 21.1046 4 20 4H18C16.8954 4 16 4.89543 16 6L16 12L16 15ZM18 11V6H20V11H18ZM20 13H18V15H20V13Z" fill="black"/>
</svg>
